app/dist/common/images/domain-holdings-australia-limited.svg

<svg height="18" viewBox="0 0 18 18" width="18" xmlns="http://www.w3.org/2000/svg"><path d="m0 0h18v18h-18z" fill="#0ea800"/><path d="m11.2 5-2.2 1.46-2.2-1.46-1.54 1.01v-.71h-1.26v6.7h1.25v-4.58l1.56-.96 1.57.97v4.57h1.24v-4.57l1.57-.97 1.56.97v4.57h1.25v-5.2z" fill="#fff"/></svg>

<!-- by TradingView --><svg xmlns="http://www.w3.org/2000/svg" width="18" height="18" viewBox="0 0 18 18"><path fill="#0EA800" d="M0 0h18v18H0z"/><path d="M11.2 5 9 6.46 6.8 5 5.26 6.01V5.3H4V12h1.25V7.42l1.56-.96 1.57.97V12h1.24V7.43l1.57-.97 1.56.97V12H14V6.8L11.2 5Z" fill="#fff"/></svg>
